sources/design/Outline/v.svg

<svg:svg xmlns:cc="http://creativecommons.org/ns#" xmlns:dc="http://purl.org/dc/elements/1.1/" xmlns:inkscape="http://www.inkscape.org/namespaces/inkscape" xmlns:rdf="http://www.w3.org/1999/02/22-rdf-syntax-ns#" xmlns:sodipodi="http://sodipodi.sourceforge.net/DTD/sodipodi-0.dtd" xmlns:svg="http://www.w3.org/2000/svg" xml:space="preserve" width="1000" height="1000" version="1.1" style="clip-rule:evenodd;fill-rule:evenodd;image-rendering:optimizeQuality;shape-rendering:geometricPrecision;text-rendering:geometricPrecision" viewBox="0 0 1000 1000" id="svg10" sodipodi:docname="v.svg" inkscape:version="1.0.2 (e86c870879, 2021-01-15)"><svg:metadata id="metadata14"><rdf:RDF><cc:Work rdf:about=""><dc:format>image/svg+xml</dc:format><dc:type rdf:resource="http://purl.org/dc/dcmitype/StillImage" /><dc:title /></cc:Work></rdf:RDF></svg:metadata><sodipodi:namedview pagecolor="#ffffff" bordercolor="#666666" borderopacity="1" objecttolerance="10" gridtolerance="10" guidetolerance="10" inkscape:pageopacity="0" inkscape:pageshadow="2" inkscape:window-width="1920" inkscape:window-height="1127" id="namedview12" showgrid="false" inkscape:zoom="1.6978177" inkscape:cx="369.6249" inkscape:cy="379.17641" inkscape:window-x="0" inkscape:window-y="0" inkscape:window-maximized="1" inkscape:current-layer="svg10" showguides="true" inkscape:guide-bbox="true" inkscape:document-rotation="0" inkscape:pagecheckerboard="0"><sodipodi:guide position="0,1000" orientation="0,1" id="guide16" inkscape:label="" inkscape:locked="true" inkscape:color="rgb(0,0,255)" /><sodipodi:guide position="1763.3122,2036.1693" orientation="1000,0" id="guide18" /><sodipodi:guide position="0,200" orientation="0,1" id="guide20" inkscape:label="base" inkscape:locked="true" inkscape:color="rgb(0,0,255)" /><inkscape:grid type="xygrid" id="grid24" originx="-473.37552" originy="-489.69235" /><sodipodi:guide position="0,0" orientation="0,1" id="guide34" inkscape:label="bottom" inkscape:locked="true" inkscape:color="rgb(0,0,255)" /><sodipodi:guide position="225.05109,1693.3186" orientation="0,1" id="guide44" inkscape:label="" inkscape:locked="false" inkscape:color="rgb(0,0,255)" /><sodipodi:guide position="0,900" orientation="0,1" id="guide46" inkscape:label="" inkscape:locked="true" inkscape:color="rgb(0,0,255)" /><sodipodi:guide position="477.50723,773.27807" orientation="1,0" id="guide841" inkscape:label="width" />    <sodipodi:guide position="131.93407,798.56494" orientation="0,-1" id="guide849" /></sodipodi:namedview>
 <svg:defs id="defs4"><inkscape:path-effect effect="fillet_chamfer" id="path-effect853" is_visible="true" lpeversion="1" satellites_param="F,0,0,1,0,18.5219,0,1 @ F,0,0,1,0,13.941546,0,1 @ F,0,0,1,0,0,0,1 @ F,0,0,1,0,0,0,1 @ F,0,0,1,0,0,0,1 @ F,0,0,1,0,0,0,1 @ F,0,0,1,0,0,0,1 @ F,0,0,1,0,0,0,1 @ F,0,0,1,0,18.5219,0,1 @ F,0,0,1,0,18.5219,0,1 @ F,0,0,1,0,0,0,1 @ F,0,0,1,0,0,0,1 @ F,0,0,1,0,0,0,1 @ F,0,0,1,0,0,0,1 @ F,0,0,1,0,0,0,1 @ F,0,0,1,0,0,0,1 @ F,0,0,1,0,0,0,1 @ F,0,0,1,0,0,0,1" unit="px" method="auto" mode="F" radius="0" chamfer_steps="1" flexible="false" use_knot_distance="true" apply_no_radius="true" apply_with_radius="true" only_selected="true" hide_knots="false" /><inkscape:path-effect effect="fillet_chamfer" id="path-effect852" is_visible="true" lpeversion="1" satellites_param="F,0,1,1,0,30.142647,0,1 @ F,0,1,1,0,30.142647,0,1 @ F,0,0,1,0,0,0,1 @ F,0,0,1,0,0,0,1 @ F,0,0,1,0,0,0,1 @ F,0,0,1,0,0,0,1 @ F,0,0,1,0,0,0,1 @ F,0,0,1,0,0,0,1 @ F,0,0,1,0,0,0,1 @ F,0,0,1,0,0,0,1 @ F,0,0,1,0,0,0,1 @ F,0,0,1,0,0,0,1 @ F,0,1,1,0,30.142647,0,1 @ F,0,1,1,0,30.142647,0,1 @ F,0,0,1,0,0,0,1 @ F,0,0,1,0,0,0,1 @ F,0,0,1,0,0,0,1 @ F,0,0,1,0,0,0,1 @ F,0,0,1,0,0,0,1 @ F,0,0,1,0,0,0,1 @ F,0,0,1,0,0,0,1 @ F,0,0,1,0,0,0,1 @ F,0,0,1,0,0,0,1" unit="px" method="auto" mode="F" radius="0" chamfer_steps="1" flexible="false" use_knot_distance="true" apply_no_radius="true" apply_with_radius="true" only_selected="true" hide_knots="false" /><inkscape:path-effect effect="fillet_chamfer" id="path-effect850" is_visible="true" lpeversion="1" satellites_param="F,0,1,1,0,30.902236,0,1 @ F,0,1,1,0,30.902236,0,1 @ F,0,0,1,0,0,0,1 @ F,0,0,1,0,0,0,1 @ F,0,0,1,0,0,0,1 @ F,0,0,1,0,0,0,1 @ F,0,1,1,0,30.902236,0,1 @ F,0,1,1,0,30.902236,0,1 @ F,0,0,1,0,0,0,1 @ F,0,1,1,0,30.902236,0,1 @ F,0,1,1,0,30.902236,0,1 @ F,0,0,1,0,0,0,1" unit="px" method="auto" mode="F" radius="0" chamfer_steps="1" flexible="false" use_knot_distance="true" apply_no_radius="true" apply_with_radius="true" only_selected="true" hide_knots="false" /><inkscape:path-effect effect="spiro" id="path-effect885" is_visible="true" lpeversion="1" /><inkscape:path-effect effect="spiro" id="path-effect849" is_visible="true" lpeversion="1" /><inkscape:path-effect effect="spiro" id="path-effect851" is_visible="true" lpeversion="1" />
  <svg:style type="text/css" id="style2">
   
    .fil0 {fill:#EF7F1A;fill-rule:nonzero}
   
  </svg:style>
 <inkscape:path-effect effect="spiro" id="path-effect1214" is_visible="true" lpeversion="1" /><inkscape:path-effect effect="spiro" id="path-effect1195" is_visible="true" lpeversion="1" /><inkscape:path-effect effect="spiro" id="path-effect992" is_visible="true" lpeversion="1" /><inkscape:path-effect effect="spiro" id="path-effect1060" is_visible="true" lpeversion="1" /><inkscape:path-effect effect="spiro" id="path-effect1047" is_visible="true" lpeversion="1" /><inkscape:path-effect effect="spiro" id="path-effect1085" is_visible="true" lpeversion="1" /><inkscape:path-effect effect="spiro" id="path-effect1286" is_visible="true" lpeversion="1" /></svg:defs>
 
<svg:g id="path883"><svg:path style="color:#000000;clip-rule:nonzero;fill:#1a5fb4;fill-rule:nonzero;stroke-linecap:round;stroke-linejoin:round;-inkscape-stroke:none;paint-order:fill stroke markers;shape-rendering:auto" d="M 336.94922,171.43555 C 324.52509000000003,171.43555 309.22057,177.22868 300.92187,190.10547 C 292.62318,202.98226 293.54235,218.50411 298.12695,229.72656 C 310.41171,259.79791 317.95757000000003,291.87209 320.32812,324.24414 C 323.76436,371.16913 316.43822,419.92915000000005 305.48242,468.99805000000003 C 295.02207,515.84793 281.64632,562.0547 265.49609,607.26953 C 246.74136,544.62621 239.09364,475.88871 222.29102,406.08203 C 204.89832,333.82393 177.68653,263.99081 141.62891,199.00977 C 129.89568,177.8648 105.08263,170.03404 83.394531,179.92187 L -4.9882812,220.2168 C -16.506296,225.46798 -27.512037,236.94675 -30.119141,251.44141000000002 C -32.726245,265.93607000000003 -26.680531,280.03216000000003 -18.121094,289.03711000000004 C 32.592473,342.39031000000006 70.163402,408.53438000000006 89.857422,479.42578000000003 C 102.92866,526.4775500000001 108.63992,577.8384500000001 119.60742,630.70312 C 130.60325,683.70432 147.54048,739.41817 183.53516000000002,786.33594 C 191.54372,796.77481 201.61572,808.4539000000001 216.23437,817.49805 C 231.31065,826.8253000000001 250.60798,832.7015200000001 271.57227,828.0175800000001 C 289.57987,823.99423 302.79906,813.48581 312.32422,802.48437 C 321.63311000000004,791.73272 327.32214000000005,780.83518 332.08789,771.92578 C 389.65688,664.30259 437.89955000000003,550.55902 468.35547,431.12305000000003 C 485.81726000000003,362.64486000000005 497.3249,292.66398000000004 502.71875,222.20312000000004 C 504.75494,195.60401000000005 481.97017,171.43555000000003 455.55469,171.43555000000003 L 336.94922,171.43555 M 362.60156,231.43555 L 441.6875,231.43555 C 436.16695,293.76659 425.67769,355.66542000000004 410.2168,416.29687 C 385.49084999999997,513.26217 348.10423,607.12595 302.96094,697.4921899999999 C 301.33768,694.49789 299.82811,691.4446999999999 298.26953,688.4160199999999 C 326.17161999999996,621.7314599999999 348.28673,552.6326599999999 364.04102,482.0722699999999 C 375.57702,430.40474999999986 384.26994,375.8774899999999 380.16797,319.8613299999999 C 377.96534,289.7824399999999 372.00789000000003,260.05133999999987 362.60156,231.4355499999999 L 362.60156,231.43555 M 95.642578,240.2793 C 125.81514,297.05345 148.91349,357.6245 163.95703,420.12305000000003 C 180.50449,488.86962000000005 187.74953,563.6079500000001 211.94922,637.59766 C 217.76927,655.39226 224.57752,672.8503000000001 232.23047,689.92773 C 226.85703999999998,701.9831 221.28547,713.9457 215.50585999999998,725.81055 C 197.66819,694.28859 186.38031,657.18691 178.35742,618.51562 C 168.16843,569.40348 162.47397,516.66346 147.66797,463.36719 C 127.38847,390.36828 90.545411,322.38884 40.998047,265.19336 L 95.642578,240.2793" id="path22653" /></svg:g></svg:svg>

<svg:svg xmlns:cc="http://creativecommons.org/ns#" xmlns:dc="http://purl.org/dc/elements/1.1/" xmlns:inkscape="http://www.inkscape.org/namespaces/inkscape" xmlns:rdf="http://www.w3.org/1999/02/22-rdf-syntax-ns#" xmlns:sodipodi="http://sodipodi.sourceforge.net/DTD/sodipodi-0.dtd" xmlns:svg="http://www.w3.org/2000/svg" xml:space="preserve" width="1000" height="1000" version="1.1" style="clip-rule:evenodd;fill-rule:evenodd;image-rendering:optimizeQuality;shape-rendering:geometricPrecision;text-rendering:geometricPrecision" viewBox="0 0 1000 1000" id="svg10" sodipodi:docname="v.svg" inkscape:version="1.0.2 (e86c870879, 2021-01-15)"><svg:metadata id="metadata14"><rdf:RDF><cc:Work rdf:about=""><dc:format>image/svg+xml</dc:format><dc:type rdf:resource="http://purl.org/dc/dcmitype/StillImage" /><dc:title /></cc:Work></rdf:RDF></svg:metadata><sodipodi:namedview pagecolor="#ffffff" bordercolor="#666666" borderopacity="1" objecttolerance="10" gridtolerance="10" guidetolerance="10" inkscape:pageopacity="0" inkscape:pageshadow="2" inkscape:window-width="1920" inkscape:window-height="1127" id="namedview12" showgrid="false" inkscape:zoom="1.6978177" inkscape:cx="369.6249" inkscape:cy="379.17641" inkscape:window-x="0" inkscape:window-y="0" inkscape:window-maximized="1" inkscape:current-layer="svg10" showguides="true" inkscape:guide-bbox="true" inkscape:document-rotation="0" inkscape:pagecheckerboard="0"><sodipodi:guide position="0,1000" orientation="0,1" id="guide16" inkscape:label="" inkscape:locked="true" inkscape:color="rgb(0,0,255)" /><sodipodi:guide position="1763.3122,2036.1693" orientation="1000,0" id="guide18" /><sodipodi:guide position="0,200" orientation="0,1" id="guide20" inkscape:label="base" inkscape:locked="true" inkscape:color="rgb(0,0,255)" /><inkscape:grid type="xygrid" id="grid24" originx="-473.37552" originy="-489.69235" /><sodipodi:guide position="0,0" orientation="0,1" id="guide34" inkscape:label="bottom" inkscape:locked="true" inkscape:color="rgb(0,0,255)" /><sodipodi:guide position="225.05109,1693.3186" orientation="0,1" id="guide44" inkscape:label="" inkscape:locked="false" inkscape:color="rgb(0,0,255)" /><sodipodi:guide position="0,900" orientation="0,1" id="guide46" inkscape:label="" inkscape:locked="true" inkscape:color="rgb(0,0,255)" /><sodipodi:guide position="477.50723,773.27807" orientation="1,0" id="guide841" inkscape:label="width" />    <sodipodi:guide position="131.93407,798.56494" orientation="0,-1" id="guide849" /></sodipodi:namedview>
 <svg:defs id="defs4"><inkscape:path-effect effect="fillet_chamfer" id="path-effect853" is_visible="true" lpeversion="1" satellites_param="F,0,0,1,0,18.5219,0,1 @ F,0,0,1,0,13.941546,0,1 @ F,0,0,1,0,0,0,1 @ F,0,0,1,0,0,0,1 @ F,0,0,1,0,0,0,1 @ F,0,0,1,0,0,0,1 @ F,0,0,1,0,0,0,1 @ F,0,0,1,0,0,0,1 @ F,0,0,1,0,18.5219,0,1 @ F,0,0,1,0,18.5219,0,1 @ F,0,0,1,0,0,0,1 @ F,0,0,1,0,0,0,1 @ F,0,0,1,0,0,0,1 @ F,0,0,1,0,0,0,1 @ F,0,0,1,0,0,0,1 @ F,0,0,1,0,0,0,1 @ F,0,0,1,0,0,0,1 @ F,0,0,1,0,0,0,1" unit="px" method="auto" mode="F" radius="0" chamfer_steps="1" flexible="false" use_knot_distance="true" apply_no_radius="true" apply_with_radius="true" only_selected="true" hide_knots="false" /><inkscape:path-effect effect="fillet_chamfer" id="path-effect852" is_visible="true" lpeversion="1" satellites_param="F,0,1,1,0,30.142647,0,1 @ F,0,1,1,0,30.142647,0,1 @ F,0,0,1,0,0,0,1 @ F,0,0,1,0,0,0,1 @ F,0,0,1,0,0,0,1 @ F,0,0,1,0,0,0,1 @ F,0,0,1,0,0,0,1 @ F,0,0,1,0,0,0,1 @ F,0,0,1,0,0,0,1 @ F,0,0,1,0,0,0,1 @ F,0,0,1,0,0,0,1 @ F,0,0,1,0,0,0,1 @ F,0,1,1,0,30.142647,0,1 @ F,0,1,1,0,30.142647,0,1 @ F,0,0,1,0,0,0,1 @ F,0,0,1,0,0,0,1 @ F,0,0,1,0,0,0,1 @ F,0,0,1,0,0,0,1 @ F,0,0,1,0,0,0,1 @ F,0,0,1,0,0,0,1 @ F,0,0,1,0,0,0,1 @ F,0,0,1,0,0,0,1 @ F,0,0,1,0,0,0,1" unit="px" method="auto" mode="F" radius="0" chamfer_steps="1" flexible="false" use_knot_distance="true" apply_no_radius="true" apply_with_radius="true" only_selected="true" hide_knots="false" /><inkscape:path-effect effect="fillet_chamfer" id="path-effect850" is_visible="true" lpeversion="1" satellites_param="F,0,1,1,0,30.902236,0,1 @ F,0,1,1,0,30.902236,0,1 @ F,0,0,1,0,0,0,1 @ F,0,0,1,0,0,0,1 @ F,0,0,1,0,0,0,1 @ F,0,0,1,0,0,0,1 @ F,0,1,1,0,30.902236,0,1 @ F,0,1,1,0,30.902236,0,1 @ F,0,0,1,0,0,0,1 @ F,0,1,1,0,30.902236,0,1 @ F,0,1,1,0,30.902236,0,1 @ F,0,0,1,0,0,0,1" unit="px" method="auto" mode="F" radius="0" chamfer_steps="1" flexible="false" use_knot_distance="true" apply_no_radius="true" apply_with_radius="true" only_selected="true" hide_knots="false" /><inkscape:path-effect effect="spiro" id="path-effect885" is_visible="true" lpeversion="1" /><inkscape:path-effect effect="spiro" id="path-effect849" is_visible="true" lpeversion="1" /><inkscape:path-effect effect="spiro" id="path-effect851" is_visible="true" lpeversion="1" />
  <svg:style type="text/css" id="style2">
   
    .fil0 {fill:#EF7F1A;fill-rule:nonzero}
   
  </svg:style>
 <inkscape:path-effect effect="spiro" id="path-effect1214" is_visible="true" lpeversion="1" /><inkscape:path-effect effect="spiro" id="path-effect1195" is_visible="true" lpeversion="1" /><inkscape:path-effect effect="spiro" id="path-effect992" is_visible="true" lpeversion="1" /><inkscape:path-effect effect="spiro" id="path-effect1060" is_visible="true" lpeversion="1" /><inkscape:path-effect effect="spiro" id="path-effect1047" is_visible="true" lpeversion="1" /><inkscape:path-effect effect="spiro" id="path-effect1085" is_visible="true" lpeversion="1" /><inkscape:path-effect effect="spiro" id="path-effect1286" is_visible="true" lpeversion="1" /></svg:defs>
 
<svg:g id="path883"><svg:path style="color:#000000;clip-rule:nonzero;fill:#1a5fb4;fill-rule:nonzero;stroke-linecap:round;stroke-linejoin:round;-inkscape-stroke:none;shape-rendering:auto" d="m 336.94922,171.43555 c -12.42413,0 -27.72865,5.79313 -36.02735,18.66992 -8.29869,12.87679 -7.37952,28.39864 -2.79492,39.62109 12.28476,30.07135 19.83062,62.14553 22.20117,94.51758 3.43624,46.92499 -3.8899,95.68501 -14.8457,144.75391 -10.46035,46.84988 -23.8361,93.05665 -39.98633,138.27148 C 246.74136,544.62621 239.09364,475.88871 222.29102,406.08203 204.89832,333.82393 177.68653,263.99081 141.62891,199.00977 129.89568,177.8648 105.08263,170.03404 83.394531,179.92187 L -4.9882812,220.2168 c -11.5180148,5.25118 -22.5237558,16.72995 -25.1308598,31.22461 -2.607104,14.49466 3.43861,28.59075 11.998047,37.5957 50.713567,53.3532 88.284496,119.49727 107.978516,190.38867 13.071238,47.05177 18.782498,98.41267 29.749998,151.27734 10.99583,53.0012 27.93306,108.71505 63.92774,155.63282 8.00856,10.43887 18.08056,22.11796 32.69921,31.16211 15.07628,9.32725 34.37361,15.20347 55.3379,10.51953 18.0076,-4.02335 31.22679,-14.53177 40.75195,-25.53321 9.30889,-10.75165 14.99792,-21.64919 19.76367,-30.55859 57.56899,-107.62319 105.81166,-221.36676 136.26758,-340.80273 17.46179,-68.47819 28.96943,-138.45907 34.36328,-208.91993 2.03619,-26.59911 -20.74858,-50.76757 -47.16406,-50.76757 z m 25.65234,60 h 79.08594 c -5.52055,62.33104 -16.00981,124.22987 -31.4707,184.86132 -24.72595,96.9653 -62.11257,190.82908 -107.25586,281.19532 -1.62326,-2.9943 -3.13283,-6.04749 -4.69141,-9.07617 27.90209,-66.68456 50.0172,-135.78336 65.77149,-206.34375 11.536,-51.66752 20.22892,-106.19478 16.12695,-162.21094 -2.20263,-30.07889 -8.16008,-59.80999 -17.56641,-88.42578 z M 95.642578,240.2793 c 30.172562,56.77415 53.270912,117.3452 68.314452,179.84375 16.54746,68.74657 23.7925,143.4849 47.99219,217.47461 5.82005,17.7946 12.6283,35.25264 20.28125,52.33007 -5.37343,12.05537 -10.945,24.01797 -16.72461,35.88282 C 197.66819,694.28859 186.38031,657.18691 178.35742,618.51562 168.16843,569.40348 162.47397,516.66346 147.66797,463.36719 127.38847,390.36828 90.545411,322.38884 40.998047,265.19336 Z" id="path22579" /></svg:g></svg:svg>
